src/icons/pdc.svg

<svg width="27" height="29" viewBox="0 0 27 29" fill="none" xmlns="http://www.w3.org/2000/svg">
<rect x="1" y="1" width="25" height="26.1739" stroke="white" stroke-width="2"/>
<line x1="1.22656" y1="18.4297" x2="25.772" y2="18.4297" stroke="white" stroke-width="2"/>
<line x1="1.22656" y1="9.6875" x2="25.772" y2="9.6875" stroke="white" stroke-width="2"/>
<mask id="path-4-inside-1_436_44045" fill="white">
<ellipse cx="22.0915" cy="5.82942" rx="1.22727" ry="0.971514"/>
</mask>
<ellipse cx="22.0915" cy="5.82942" rx="1.22727" ry="0.971514" fill="#6B6D85"/>
<path d="M22.3188 5.82942C22.3188 5.78887 22.33 5.75573 22.3404 5.73632C22.3496 5.71912 22.3536 5.72051 22.3387 5.73232C22.306 5.7582 22.2219 5.80094 22.0915 5.80094V7.80094C23.0911 7.80094 24.3188 7.1235 24.3188 5.82942H22.3188ZM22.0915 5.80094C21.9611 5.80094 21.8771 5.7582 21.8444 5.73232C21.8295 5.72051 21.8335 5.71912 21.8427 5.73632C21.8531 5.75573 21.8643 5.78887 21.8643 5.82942H19.8643C19.8643 7.1235 21.0919 7.80094 22.0915 7.80094V5.80094ZM21.8643 5.82942C21.8643 5.86998 21.8531 5.90312 21.8427 5.92253C21.8335 5.93973 21.8295 5.93834 21.8444 5.92653C21.8771 5.90065 21.9611 5.85791 22.0915 5.85791V3.85791C21.0919 3.85791 19.8643 4.53535 19.8643 5.82942H21.8643ZM22.0915 5.85791C22.2219 5.85791 22.306 5.90065 22.3387 5.92653C22.3536 5.93834 22.3496 5.93973 22.3404 5.92253C22.33 5.90312 22.3188 5.86998 22.3188 5.82942H24.3188C24.3188 4.53535 23.0911 3.85791 22.0915 3.85791V5.85791Z" fill="white" mask="url(#path-4-inside-1_436_44045)"/>
<mask id="path-6-inside-2_436_44045" fill="white">
<ellipse cx="18.4099" cy="5.82942" rx="1.22727" ry="0.971514"/>
</mask>
<ellipse cx="18.4099" cy="5.82942" rx="1.22727" ry="0.971514" fill="#6B6D85"/>
<path d="M18.6372 5.82942C18.6372 5.78887 18.6484 5.75573 18.6587 5.73632C18.6679 5.71912 18.6719 5.72051 18.657 5.73232C18.6243 5.7582 18.5403 5.80094 18.4099 5.80094V7.80094C19.4095 7.80094 20.6372 7.1235 20.6372 5.82942H18.6372ZM18.4099 5.80094C18.2795 5.80094 18.1954 5.7582 18.1627 5.73232C18.1478 5.72051 18.1519 5.71912 18.1611 5.73632C18.1714 5.75573 18.1826 5.78887 18.1826 5.82942H16.1826C16.1826 7.1235 17.4103 7.80094 18.4099 7.80094V5.80094ZM18.1826 5.82942C18.1826 5.86998 18.1714 5.90312 18.1611 5.92253C18.1519 5.93973 18.1478 5.93834 18.1627 5.92653C18.1954 5.90065 18.2795 5.85791 18.4099 5.85791V3.85791C17.4103 3.85791 16.1826 4.53535 16.1826 5.82942H18.1826ZM18.4099 5.85791C18.5403 5.85791 18.6243 5.90065 18.657 5.92653C18.6719 5.93834 18.6679 5.93973 18.6587 5.92253C18.6484 5.90312 18.6372 5.86998 18.6372 5.82942H20.6372C20.6372 4.53535 19.4095 3.85791 18.4099 3.85791V5.85791Z" fill="white" mask="url(#path-6-inside-2_436_44045)"/>
<mask id="path-8-inside-3_436_44045" fill="white">
<ellipse cx="22.0915" cy="14.5716" rx="1.22727" ry="0.971514"/>
</mask>
<ellipse cx="22.0915" cy="14.5716" rx="1.22727" ry="0.971514" fill="#6B6D85"/>
<path d="M22.3188 14.5716C22.3188 14.5311 22.33 14.4979 22.3404 14.4785C22.3496 14.4613 22.3536 14.4627 22.3387 14.4745C22.306 14.5004 22.2219 14.5431 22.0915 14.5431V16.5431C23.0911 16.5431 24.3188 15.8657 24.3188 14.5716H22.3188ZM22.0915 14.5431C21.9611 14.5431 21.8771 14.5004 21.8444 14.4745C21.8295 14.4627 21.8335 14.4613 21.8427 14.4785C21.8531 14.4979 21.8643 14.5311 21.8643 14.5716H19.8643C19.8643 15.8657 21.0919 16.5431 22.0915 16.5431V14.5431ZM21.8643 14.5716C21.8643 14.6122 21.8531 14.6453 21.8427 14.6647C21.8335 14.6819 21.8295 14.6805 21.8444 14.6687C21.8771 14.6428 21.9611 14.6001 22.0915 14.6001V12.6001C21.0919 12.6001 19.8643 13.2775 19.8643 14.5716H21.8643ZM22.0915 14.6001C22.2219 14.6001 22.306 14.6428 22.3387 14.6687C22.3536 14.6805 22.3496 14.6819 22.3404 14.6647C22.33 14.6453 22.3188 14.6122 22.3188 14.5716H24.3188C24.3188 13.2775 23.0911 12.6001 22.0915 12.6001V14.6001Z" fill="white" mask="url(#path-8-inside-3_436_44045)"/>
<mask id="path-10-inside-4_436_44045" fill="white">
<ellipse cx="18.4099" cy="14.5716" rx="1.22727" ry="0.971514"/>
</mask>
<ellipse cx="18.4099" cy="14.5716" rx="1.22727" ry="0.971514" fill="#6B6D85"/>
<path d="M18.6372 14.5716C18.6372 14.5311 18.6484 14.4979 18.6587 14.4785C18.6679 14.4613 18.6719 14.4627 18.657 14.4745C18.6243 14.5004 18.5403 14.5431 18.4099 14.5431V16.5431C19.4095 16.5431 20.6372 15.8657 20.6372 14.5716H18.6372ZM18.4099 14.5431C18.2795 14.5431 18.1954 14.5004 18.1627 14.4745C18.1478 14.4627 18.1519 14.4613 18.1611 14.4785C18.1714 14.4979 18.1826 14.5311 18.1826 14.5716H16.1826C16.1826 15.8657 17.4103 16.5431 18.4099 16.5431V14.5431ZM18.1826 14.5716C18.1826 14.6122 18.1714 14.6453 18.1611 14.6647C18.1519 14.6819 18.1478 14.6805 18.1627 14.6687C18.1954 14.6428 18.2795 14.6001 18.4099 14.6001V12.6001C17.4103 12.6001 16.1826 13.2775 16.1826 14.5716H18.1826ZM18.4099 14.6001C18.5403 14.6001 18.6243 14.6428 18.657 14.6687C18.6719 14.6805 18.6679 14.6819 18.6587 14.6647C18.6484 14.6453 18.6372 14.6122 18.6372 14.5716H20.6372C20.6372 13.2775 19.4095 12.6001 18.4099 12.6001V14.6001Z" fill="white" mask="url(#path-10-inside-4_436_44045)"/>
<mask id="path-12-inside-5_436_44045" fill="white">
<ellipse cx="22.0915" cy="23.3177" rx="1.22727" ry="0.971514"/>
</mask>
<ellipse cx="22.0915" cy="23.3177" rx="1.22727" ry="0.971514" fill="#6B6D85"/>
<path d="M22.3188 23.3177C22.3188 23.2772 22.33 23.244 22.3404 23.2246C22.3496 23.2074 22.3536 23.2088 22.3387 23.2206C22.306 23.2465 22.2219 23.2892 22.0915 23.2892V25.2892C23.0911 25.2892 24.3188 24.6118 24.3188 23.3177H22.3188ZM22.0915 23.2892C21.9611 23.2892 21.8771 23.2465 21.8444 23.2206C21.8295 23.2088 21.8335 23.2074 21.8427 23.2246C21.8531 23.244 21.8643 23.2772 21.8643 23.3177H19.8643C19.8643 24.6118 21.0919 25.2892 22.0915 25.2892V23.2892ZM21.8643 23.3177C21.8643 23.3583 21.8531 23.3914 21.8427 23.4108C21.8335 23.428 21.8295 23.4266 21.8444 23.4148C21.8771 23.3889 21.9611 23.3462 22.0915 23.3462V21.3462C21.0919 21.3462 19.8643 22.0236 19.8643 23.3177H21.8643ZM22.0915 23.3462C22.2219 23.3462 22.306 23.3889 22.3387 23.4148C22.3536 23.4266 22.3496 23.428 22.3404 23.4108C22.33 23.3914 22.3188 23.3583 22.3188 23.3177H24.3188C24.3188 22.0236 23.0911 21.3462 22.0915 21.3462V23.3462Z" fill="white" mask="url(#path-12-inside-5_436_44045)"/>
<mask id="path-14-inside-6_436_44045" fill="white">
<ellipse cx="18.4099" cy="23.3177" rx="1.22727" ry="0.971514"/>
</mask>
<ellipse cx="18.4099" cy="23.3177" rx="1.22727" ry="0.971514" fill="#6B6D85"/>
<path d="M18.6372 23.3177C18.6372 23.2772 18.6484 23.244 18.6587 23.2246C18.6679 23.2074 18.6719 23.2088 18.657 23.2206C18.6243 23.2465 18.5403 23.2892 18.4099 23.2892V25.2892C19.4095 25.2892 20.6372 24.6118 20.6372 23.3177H18.6372ZM18.4099 23.2892C18.2795 23.2892 18.1954 23.2465 18.1627 23.2206C18.1478 23.2088 18.1519 23.2074 18.1611 23.2246C18.1714 23.244 18.1826 23.2772 18.1826 23.3177H16.1826C16.1826 24.6118 17.4103 25.2892 18.4099 25.2892V23.2892ZM18.1826 23.3177C18.1826 23.3583 18.1714 23.3914 18.1611 23.4108C18.1519 23.428 18.1478 23.4266 18.1627 23.4148C18.1954 23.3889 18.2795 23.3462 18.4099 23.3462V21.3462C17.4103 21.3462 16.1826 22.0236 16.1826 23.3177H18.1826ZM18.4099 23.3462C18.5403 23.3462 18.6243 23.3889 18.657 23.4148C18.6719 23.4266 18.6679 23.428 18.6587 23.4108C18.6484 23.3914 18.6372 23.3583 18.6372 23.3177H20.6372C20.6372 22.0236 19.4095 21.3462 18.4099 21.3462V23.3462Z" fill="white" mask="url(#path-14-inside-6_436_44045)"/>
</svg>

<svg xmlns="http://www.w3.org/2000/svg"><mask id="a" fill="#fff"><ellipse cx="22.091" cy="5.829" rx="1.227" ry=".972"/></mask><mask id="b" fill="#fff"><ellipse cx="18.41" cy="5.829" rx="1.227" ry=".972"/></mask><mask id="c" fill="#fff"><ellipse cx="22.091" cy="14.572" rx="1.227" ry=".972"/></mask><mask id="d" fill="#fff"><ellipse cx="18.41" cy="14.572" rx="1.227" ry=".972"/></mask><mask id="e" fill="#fff"><ellipse cx="22.091" cy="23.318" rx="1.227" ry=".972"/></mask><mask id="f" fill="#fff"><ellipse cx="18.41" cy="23.318" rx="1.227" ry=".972"/></mask><g stroke="#fff" stroke-width="2"><path d="M1 1h25v26.174H1zM1.227 18.43h24.545M1.227 9.688h24.545"/></g><ellipse cx="22.091" cy="5.829" fill="#6b6d85" rx="1.227" ry=".972"/><path d="M22.319 5.83c0-.041.011-.074.021-.094.01-.017.014-.015-.001-.004a.413.413 0 0 1-.247.069v2c1 0 2.227-.677 2.227-1.972zm-.227-.03a.412.412 0 0 1-.248-.068c-.015-.011-.01-.013-.001.004.01.02.021.053.021.093h-2c0 1.294 1.228 1.972 2.227 1.972zm-.228.03c0 .04-.01.073-.021.093-.01.017-.013.015.001.004a.412.412 0 0 1 .247-.07v-2c-1 0-2.227.678-2.227 1.972zm.227.028c.13 0 .215.043.248.069.015.011.01.013.001-.004a.203.203 0 0 1-.021-.094h2c0-1.294-1.228-1.971-2.227-1.971z" fill="#fff" mask="url(#a)"/><ellipse cx="18.41" cy="5.829" fill="#6b6d85" rx="1.227" ry=".972"/><path d="M18.637 5.83c0-.041.011-.074.022-.094.009-.017.013-.015-.002-.004a.412.412 0 0 1-.247.069v2c1 0 2.227-.677 2.227-1.972zm-.227-.03a.413.413 0 0 1-.247-.068c-.015-.011-.011-.013-.002.004.01.02.022.053.022.093h-2c0 1.294 1.227 1.972 2.227 1.972zm-.227.03c0 .04-.012.073-.022.093-.01.017-.013.015.002.004a.413.413 0 0 1 .247-.07v-2c-1 0-2.227.678-2.227 1.972zm.227.028c.13 0 .214.043.247.069.015.011.01.013.002-.004a.204.204 0 0 1-.022-.094h2c0-1.294-1.228-1.971-2.227-1.971z" fill="#fff" mask="url(#b)"/><ellipse cx="22.091" cy="14.572" fill="#6b6d85" rx="1.227" ry=".972"/><path d="M22.319 14.572c0-.04.011-.074.021-.093.01-.018.014-.016-.001-.004a.412.412 0 0 1-.247.068v2c1 0 2.227-.677 2.227-1.971zm-.227-.029a.412.412 0 0 1-.248-.068c-.015-.012-.01-.014-.001.004.01.019.021.052.021.093h-2c0 1.294 1.228 1.971 2.227 1.971zm-.228.029c0 .04-.01.073-.021.093-.01.017-.013.016.001.004a.412.412 0 0 1 .247-.069v-2c-1 0-2.227.677-2.227 1.972zm.227.028c.13 0 .215.043.248.069.015.011.01.013.001-.004a.203.203 0 0 1-.021-.093h2c0-1.294-1.228-1.972-2.227-1.972z" fill="#fff" mask="url(#c)"/><ellipse cx="18.41" cy="14.572" fill="#6b6d85" rx="1.227" ry=".972"/><path d="M18.637 14.572c0-.04.011-.074.022-.093.009-.018.013-.016-.002-.004a.412.412 0 0 1-.247.068v2c1 0 2.227-.677 2.227-1.971zm-.227-.029a.412.412 0 0 1-.247-.068c-.015-.012-.011-.014-.002.004.01.019.022.052.022.093h-2c0 1.294 1.227 1.971 2.227 1.971zm-.227.029c0 .04-.012.073-.022.093-.01.017-.013.016.002.004a.412.412 0 0 1 .247-.069v-2c-1 0-2.227.677-2.227 1.972zm.227.028c.13 0 .214.043.247.069.015.011.01.013.002-.004a.204.204 0 0 1-.022-.093h2c0-1.294-1.228-1.972-2.227-1.972z" fill="#fff" mask="url(#d)"/><ellipse cx="22.091" cy="23.318" fill="#6b6d85" rx="1.227" ry=".972"/><path d="M22.319 23.318c0-.04.011-.074.021-.093.01-.018.014-.016-.001-.004a.412.412 0 0 1-.247.068v2c1 0 2.227-.677 2.227-1.971zm-.227-.029a.412.412 0 0 1-.248-.068c-.015-.012-.01-.014-.001.004.01.019.021.052.021.093h-2c0 1.294 1.228 1.971 2.227 1.971zm-.228.029c0 .04-.01.073-.021.093-.01.017-.013.016.001.004a.412.412 0 0 1 .247-.069v-2c-1 0-2.227.678-2.227 1.972zm.227.028c.13 0 .215.043.248.069.015.012.01.013.001-.004a.203.203 0 0 1-.021-.093h2c0-1.294-1.228-1.972-2.227-1.972z" fill="#fff" mask="url(#e)"/><ellipse cx="18.41" cy="23.318" fill="#6b6d85" rx="1.227" ry=".972"/><path d="M18.637 23.318c0-.04.011-.074.022-.093.009-.018.013-.016-.002-.004a.412.412 0 0 1-.247.068v2c1 0 2.227-.677 2.227-1.971zm-.227-.029a.412.412 0 0 1-.247-.068c-.015-.012-.011-.014-.002.004.01.019.022.052.022.093h-2c0 1.294 1.227 1.971 2.227 1.971zm-.227.029c0 .04-.012.073-.022.093-.01.017-.013.016.002.004a.412.412 0 0 1 .247-.069v-2c-1 0-2.227.678-2.227 1.972zm.227.028c.13 0 .214.043.247.069.015.012.01.013.002-.004a.204.204 0 0 1-.022-.093h2c0-1.294-1.228-1.972-2.227-1.972z" fill="#fff" mask="url(#f)"/></svg>
